img/icon-upperbody.svg

<svg width="66" height="75" viewBox="0 0 66 75" fill="none" xmlns="http://www.w3.org/2000/svg">
<path d="M48.2193 25.699L53.3061 35.0084L44.2465 33.4301" fill="#F8F9F9"/>
<path d="M48.2193 25.699L53.3061 35.0084L44.2465 33.4301" stroke="#646464" stroke-width="0.5" stroke-miterlimit="10"/>
<path d="M48.7295 21.5661C49.0114 22.5559 47.8034 24.4018 47.8034 24.4018C47.8034 24.4018 47.7363 27.4648 48.0182 27.5585C48.3 27.6521 50.4475 30.4476 50.9844 31.6782C51.5078 32.9087 51.8568 34.4603 51.8568 34.4603C51.8568 34.4603 44.6091 29.0298 43.8306 28.4145C43.0522 27.7992 42.0053 26.9967 40.6229 26.4215C39.2404 25.833 30.8922 24.6426 30.8922 24.6426C30.1271 24.5489 27.4428 25.1642 27.0804 25.1642C26.7181 25.1642 25.6577 25.7795 25.2954 25.8999C24.9196 26.0202 23.6177 25.9266 23.4029 26.0069C23.1882 26.0871 22.7587 26.3814 23.0942 26.9298C23.4298 27.4782 23.8324 27.7725 25.0001 27.8928C26.1678 28.0132 29.4829 25.8731 28.0199 26.7158C26.1678 27.7725 23.2821 30.0865 23.2821 30.0865C23.2821 30.0865 20.3159 33.4973 20.128 33.8183C19.9267 34.1393 20.222 34.6609 20.3696 34.8883C20.5173 35.1157 21.5373 34.8482 21.8326 34.6476C22.1279 34.4469 24.5572 31.7584 24.5572 31.7584L29.3621 28.9495C29.3621 28.9495 26.5704 31.1298 26.1812 31.317C25.792 31.5043 24.6377 32.3871 24.6377 32.3871C24.6377 32.3871 22.3694 34.6476 22.0876 34.8616C21.8057 35.0756 21.081 35.9985 20.8796 36.3329C20.6783 36.6673 20.6917 37.0552 20.7588 37.5902C20.826 38.1252 21.4031 37.9647 21.5776 38.0182C21.752 38.0851 22.3158 37.831 22.3158 37.831C22.1815 38.3794 22.5976 38.5934 22.866 38.7807C23.1345 38.9679 23.9129 38.7539 23.9129 38.7539L25.2685 38.0182C25.1611 38.366 25.2819 38.8074 25.3759 38.9278C25.4698 39.0482 26.3691 38.8609 26.6107 38.8342C26.8523 38.8074 30.7177 36.373 31.6304 36.0119C32.5565 35.6374 34.3684 34.9953 35.0529 34.8482C35.7374 34.7011 37.8312 33.524 37.8312 33.524C39.4552 33.2966 40.2873 34.4871 40.2873 34.4871L51.5212 45.8965C52.2326 46.7927 55.0108 48.9328 55.0108 48.9328C55.0108 48.9328 61.8827 52.4105 62.1646 52.464C62.4464 52.5309 63.6409 52.0627 63.802 51.113C63.9496 50.1634 64.916 49.2137 65.0636 48.4111C65.2113 47.6086 64.8757 46.2042 64.8757 46.2042C62.6343 39.2488 54.9303 18.5967 51.3199 11.6548C50.877 10.8121 49.1322 9.83567 48.2732 9.56816C47.4142 9.28727 45.8976 9.3274 44.6628 9.63504C43.428 9.94268 42.3811 10.558 41.4818 10.8656C40.5826 11.1732 38.6096 10.7987 36.7708 10.5847C34.9187 10.3707 33.8718 9.35415 33.2275 8.40447C32.6907 7.57518 32.3686 6.05035 32.3686 6.05035L30.3956 9.63504L24.9061 10.2503L22.3158 15.7745L16.5176 17.8076L14.303 23.8266C14.303 23.8266 7.6996 26.1941 7.67276 26.1941C7.67276 26.1941 8.71965 29.1502 8.78675 29.5381C8.85386 29.9393 10.451 35.4635 12.0482 37.3361C12.2227 38.4329 12.5314 41.322 12.8401 44.3182C12.8535 44.4653 12.8804 44.7596 12.8804 44.7596L16.6384 53.0659L12.8132 58.9111L11.3906 64.3817C11.3906 64.3817 10.8805 64.7295 10.1692 65.1976C16.276 68.9428 33.2812 75.7644 43.5219 74.4536C43.5219 74.4536 43.1864 69.0632 42.9045 67.632C42.6227 66.2008 42.8106 63.1913 43.7367 60.2754C44.3138 58.3894 44.0588 57.6002 45.562 53.8283C46.5552 52.1296 47.2934 46.4717 47.3874 44.5723C47.3874 44.5723 48.1927 44.1978 49.1993 43.5825" fill="#F9F9FA"/>
<path d="M48.7295 21.5661C49.0114 22.5559 47.8034 24.4018 47.8034 24.4018C47.8034 24.4018 47.7363 27.4648 48.0182 27.5585C48.3 27.6521 50.4475 30.4476 50.9844 31.6782C51.5078 32.9087 51.8568 34.4603 51.8568 34.4603C51.8568 34.4603 44.6091 29.0298 43.8306 28.4145C43.0522 27.7992 42.0053 26.9967 40.6229 26.4215C39.2404 25.833 30.8922 24.6426 30.8922 24.6426C30.1271 24.5489 27.4428 25.1642 27.0804 25.1642C26.7181 25.1642 25.6577 25.7795 25.2954 25.8999C24.9196 26.0202 23.6177 25.9266 23.4029 26.0069C23.1882 26.0871 22.7587 26.3814 23.0942 26.9298C23.4298 27.4782 23.8324 27.7725 25.0001 27.8928C26.1678 28.0132 29.4829 25.8731 28.0199 26.7158C26.1678 27.7725 23.2821 30.0865 23.2821 30.0865C23.2821 30.0865 20.3159 33.4973 20.128 33.8183C19.9267 34.1393 20.222 34.6609 20.3696 34.8883C20.5173 35.1157 21.5373 34.8482 21.8326 34.6476C22.1279 34.4469 24.5572 31.7584 24.5572 31.7584L29.3621 28.9495C29.3621 28.9495 26.5704 31.1298 26.1812 31.317C25.792 31.5043 24.6377 32.3871 24.6377 32.3871C24.6377 32.3871 22.3694 34.6476 22.0876 34.8616C21.8057 35.0756 21.081 35.9985 20.8796 36.3329C20.6783 36.6673 20.6917 37.0552 20.7588 37.5902C20.826 38.1252 21.4031 37.9647 21.5776 38.0182C21.752 38.0851 22.3158 37.831 22.3158 37.831C22.1815 38.3794 22.5976 38.5934 22.866 38.7807C23.1345 38.9679 23.9129 38.7539 23.9129 38.7539L25.2685 38.0182C25.1611 38.366 25.2819 38.8074 25.3759 38.9278C25.4698 39.0482 26.3691 38.8609 26.6107 38.8342C26.8523 38.8074 30.7177 36.373 31.6304 36.0119C32.5565 35.6374 34.3684 34.9953 35.0529 34.8482C35.7374 34.7011 37.8312 33.524 37.8312 33.524C39.4552 33.2966 40.2873 34.4871 40.2873 34.4871L51.5212 45.8965C52.2326 46.7927 55.0108 48.9328 55.0108 48.9328C55.0108 48.9328 61.8827 52.4105 62.1646 52.464C62.4464 52.5309 63.6409 52.0627 63.802 51.113C63.9496 50.1634 64.916 49.2137 65.0636 48.4111C65.2113 47.6086 64.8757 46.2042 64.8757 46.2042C62.6343 39.2488 54.9303 18.5967 51.3199 11.6548C50.877 10.8121 49.1322 9.83567 48.2732 9.56816C47.4142 9.28727 45.8976 9.3274 44.6628 9.63504C43.428 9.94268 42.3811 10.558 41.4818 10.8656C40.5826 11.1732 38.6096 10.7987 36.7708 10.5847C34.9187 10.3707 33.8718 9.35415 33.2275 8.40447C32.6907 7.57518 32.3686 6.05035 32.3686 6.05035L30.3956 9.63504L24.9061 10.2503L22.3158 15.7745L16.5176 17.8076L14.303 23.8266C14.303 23.8266 7.6996 26.1941 7.67276 26.1941C7.67276 26.1941 8.71965 29.1502 8.78676 29.5381C8.85386 29.9393 10.451 35.4635 12.0482 37.3361C12.2227 38.4329 12.5314 41.322 12.8401 44.3182C12.8535 44.4653 12.8804 44.7596 12.8804 44.7596L16.6384 53.0659L12.8132 58.9111L11.3906 64.3817C11.3906 64.3817 10.8805 64.7295 10.1692 65.1976C16.276 68.9428 33.2812 75.7644 43.5219 74.4536C43.5219 74.4536 43.1864 69.0632 42.9045 67.632C42.6227 66.2008 42.8106 63.1913 43.7367 60.2754C44.3138 58.3894 44.0588 57.6002 45.562 53.8283C46.5552 52.1296 47.2934 46.4717 47.3874 44.5723C47.3874 44.5723 48.1927 44.1978 49.1993 43.5825" stroke="#646464" stroke-width="0.5" stroke-miterlimit="10"/>
<path d="M37.7773 34.5671C37.7773 34.5671 38.3545 43.1008 30.382 43.3282C23.4967 43.4218 21.1748 40.1983 20.3024 39.1817C18.8931 37.4027 17.1483 33.9384 16.2759 30.3538" stroke="#646464" stroke-width="0.5" stroke-miterlimit="10"/>
<path d="M36.7438 39.6232C36.7438 39.6232 38.5557 43.0072 42.6493 44.4919C44.5686 45.1875 46.2865 44.9333 47.3871 44.5722" stroke="#646464" stroke-width="0.5" stroke-miterlimit="10"/>
<path d="M22.356 37.8444L26.6509 33.8986C26.6509 33.8986 28.2883 32.561 30.2345 31.4107" stroke="#646464" stroke-width="0.5" stroke-miterlimit="10"/>
<path d="M25.322 38.0314L29.2546 34.8346C29.2546 34.8346 31.147 33.4837 32.3818 33.0557" stroke="#646464" stroke-width="0.5" stroke-miterlimit="10"/>
<path d="M35.4152 64.9835C34.771 65.3848 33.9925 68.5415 34.677 68.4879C35.2273 68.1268 34.677 66.6822 35.4152 64.9835Z" fill="#FBFBFB" stroke="#646464" stroke-width="0.5" stroke-miterlimit="10"/>
<path d="M9.61887 49.4144L8.14249 62.3487L13.8735 66.7091L9.61887 49.4144Z" fill="#F7F7F7" stroke="#646464" stroke-width="0.5" stroke-miterlimit="10"/>
<path d="M17.1217 41.282L12.2228 47.6087L19.8731 55.594L17.1217 41.282Z" fill="#F7F7F7" stroke="#646464" stroke-width="0.5" stroke-miterlimit="10"/>
<path d="M9.63205 18.6769L11.9808 28.1469L21.2418 24.9902L9.63205 18.6769Z" fill="#F7F7F7" stroke="#646464" stroke-width="0.5" stroke-miterlimit="10"/>
<path d="M18.0476 56.7978L11.6723 49.3074L14.2493 62.0945L18.0476 56.7978Z" fill="#F7F7F7" stroke="#646464" stroke-width="0.5" stroke-miterlimit="10"/>
<path d="M11.1623 46.8058L11.6992 34.3665L15.1888 42.0575L11.1623 46.8058Z" fill="#F7F7F7" stroke="#646464" stroke-width="0.5" stroke-miterlimit="10"/>
<path d="M25.4162 14.9986L20.316 5.27444L15.3903 7.41455L25.4162 14.9986Z" fill="#F7F7F7" stroke="#646464" stroke-width="0.5" stroke-miterlimit="10"/>
<path d="M15.7926 17.112L13.7928 7.93631L20.5975 13.2732L15.7926 17.112Z" fill="#F7F7F7" stroke="#646464" stroke-width="0.5" stroke-miterlimit="10"/>
<path d="M18.7992 16.0955L28.7983 17.9948L20.6782 22.3018L18.7992 16.0955Z" fill="#F7F7F7" stroke="#646464" stroke-width="0.5" stroke-miterlimit="10"/>
<path d="M13.5512 19.0515L7.7262 11.8688L12.4775 5.07394L13.5512 19.0515Z" fill="#F7F7F7" stroke="#646464" stroke-width="0.5" stroke-miterlimit="10"/>
<path d="M20.8392 1.30188L32.0999 6.98654L29.7646 14.5438L20.8392 1.30188Z" fill="#F7F7F7" stroke="#646464" stroke-width="0.5" stroke-miterlimit="10"/>
<path d="M1.70013 3.1344L3.0423 16.4165L6.50508 7.86939L1.70013 3.1344Z" fill="#F7F7F7" stroke="#646464" stroke-width="0.5" stroke-miterlimit="10"/>
<path d="M9.847 23.4655L6.26343 11.5211L4.11597 20.4293L9.847 23.4655Z" fill="#F7F7F7" stroke="#646464" stroke-width="0.5" stroke-miterlimit="10"/>
<path d="M6.3306 38.7805L8.26331 51.7951L10.0887 43.1945L6.3306 38.7805Z" fill="#F7F7F7" stroke="#646464" stroke-width="0.5" stroke-miterlimit="10"/>
<path d="M3.49872 22.8367L8.96132 39.0882L9.24317 24.6023L3.49872 22.8367Z" fill="#F7F7F7" stroke="#646464" stroke-width="0.5" stroke-miterlimit="10"/>
<path d="M1.72623 0.699951L6.49091 6.10373L12.9736 3.66935L1.72623 0.699951Z" fill="#F7F7F7" stroke="#646464" stroke-width="0.5" stroke-miterlimit="10"/>
</svg>

<svg width="66" height="75" viewBox="0 0 66 75" fill="none" xmlns="http://www.w3.org/2000/svg"><path d="M48.22 25.699l5.086 9.31-9.06-1.579" fill="#F8F9F9"/><path d="M48.22 25.699l5.086 9.31-9.06-1.579" stroke="#646464" stroke-width=".5" stroke-miterlimit="10"/><path d="M48.73 21.566c.281.99-.927 2.836-.927 2.836s-.067 3.063.215 3.156c.282.094 2.43 2.89 2.966 4.12.524 1.23.873 2.782.873 2.782s-7.248-5.43-8.026-6.046c-.779-.615-1.826-1.417-3.208-1.992-1.383-.589-9.73-1.78-9.73-1.78-.766-.093-3.45.522-3.813.522-.362 0-1.422.615-1.785.736-.375.12-1.677.027-1.892.107-.215.08-.644.374-.309.923.336.548.738.843 1.906.963s4.483-2.02 3.02-1.177c-1.852 1.056-4.738 3.37-4.738 3.37s-2.966 3.411-3.154 3.732c-.201.321.094.843.242 1.07.147.228 1.167-.04 1.463-.24.295-.201 2.724-2.89 2.724-2.89l4.805-2.808s-2.792 2.18-3.18 2.367c-.39.187-1.544 1.07-1.544 1.07s-2.269 2.26-2.55 2.475c-.282.214-1.007 1.136-1.208 1.47-.202.335-.188.723-.121 1.258s.644.375.819.428c.174.067.738-.187.738-.187-.134.548.282.762.55.95.268.187 1.047-.027 1.047-.027l1.355-.736c-.107.348.014.79.108.91s.993-.067 1.235-.094c.241-.027 4.107-2.461 5.02-2.822.925-.375 2.737-1.017 3.422-1.164.684-.147 2.778-1.324 2.778-1.324a2.614 2.614 0 012.456.963l11.234 11.41c.712.896 3.49 3.036 3.49 3.036s6.872 3.477 7.154 3.531c.281.067 1.476-.401 1.637-1.351.148-.95 1.114-1.9 1.262-2.702.147-.802-.188-2.207-.188-2.207-2.242-6.955-9.946-27.607-13.556-34.55-.443-.842-2.188-1.818-3.047-2.086-.859-.28-2.375-.24-3.61.067-1.235.308-2.282.923-3.181 1.23-.9.308-2.872-.066-4.711-.28-1.852-.214-2.9-1.23-3.544-2.18-.536-.83-.858-2.355-.858-2.355l-1.973 3.585-5.49.615-2.59 5.524-5.798 2.034-2.215 6.019s-6.603 2.367-6.63 2.367c0 0 1.047 2.956 1.114 3.344.067.401 1.664 5.926 3.261 7.798.175 1.097.483 3.986.792 6.982l.04.442 3.758 8.306-3.825 5.845-1.422 5.47s-.51.349-1.222.817c6.107 3.745 23.112 10.566 33.353 9.256 0 0-.336-5.39-.617-6.822-.282-1.431-.094-4.44.832-7.357.577-1.886.322-2.675 1.825-6.447.993-1.698 1.731-7.356 1.825-9.256 0 0 .806-.374 1.812-.99" fill="#F9F9FA"/><path d="M48.73 21.566c.281.99-.927 2.836-.927 2.836s-.067 3.063.215 3.156c.282.094 2.43 2.89 2.966 4.12.524 1.23.873 2.782.873 2.782s-7.248-5.43-8.026-6.046c-.779-.615-1.826-1.417-3.208-1.992-1.383-.589-9.73-1.78-9.73-1.78-.766-.093-3.45.522-3.813.522-.362 0-1.422.615-1.785.736-.375.12-1.677.027-1.892.107-.215.08-.644.374-.309.923.336.548.738.843 1.906.963s4.483-2.02 3.02-1.177c-1.852 1.056-4.738 3.37-4.738 3.37s-2.966 3.411-3.154 3.732c-.201.321.094.843.242 1.07.147.228 1.167-.04 1.463-.24.295-.201 2.724-2.89 2.724-2.89l4.805-2.808s-2.792 2.18-3.18 2.367c-.39.187-1.544 1.07-1.544 1.07s-2.269 2.26-2.55 2.475c-.282.214-1.007 1.136-1.208 1.47-.202.335-.188.723-.121 1.258s.644.375.819.428c.174.067.738-.187.738-.187-.134.548.282.762.55.95.268.187 1.047-.027 1.047-.027l1.355-.736c-.107.348.014.79.108.91s.993-.067 1.235-.094c.241-.027 4.107-2.461 5.02-2.822.925-.375 2.737-1.017 3.422-1.164.684-.147 2.778-1.324 2.778-1.324a2.614 2.614 0 012.456.963l11.234 11.41c.712.896 3.49 3.036 3.49 3.036s6.872 3.477 7.154 3.531c.281.067 1.476-.401 1.637-1.351.148-.95 1.114-1.9 1.262-2.702.147-.802-.188-2.207-.188-2.207-2.242-6.955-9.946-27.607-13.556-34.55-.443-.842-2.188-1.818-3.047-2.086-.859-.28-2.375-.24-3.61.067-1.235.308-2.282.923-3.181 1.23-.9.308-2.872-.066-4.711-.28-1.852-.214-2.9-1.23-3.544-2.18-.536-.83-.858-2.355-.858-2.355l-1.973 3.585-5.49.615-2.59 5.524-5.798 2.034-2.215 6.019s-6.603 2.367-6.63 2.367c0 0 1.047 2.956 1.114 3.344.067.401 1.664 5.926 3.261 7.798.175 1.097.483 3.986.792 6.982l.04.442 3.758 8.306-3.825 5.845-1.422 5.47s-.51.349-1.222.817c6.107 3.745 23.112 10.566 33.353 9.256 0 0-.336-5.39-.617-6.822-.282-1.431-.094-4.44.832-7.357.577-1.886.322-2.675 1.825-6.447.993-1.698 1.731-7.356 1.825-9.256 0 0 .806-.374 1.812-.99" stroke="#646464" stroke-width=".5" stroke-miterlimit="10"/><path d="M37.777 34.567s.578 8.534-7.395 8.761c-6.885.094-9.207-3.13-10.08-4.146-1.409-1.78-3.154-5.244-4.026-8.828" stroke="#646464" stroke-width=".5" stroke-miterlimit="10"/><path d="M36.744 39.623s1.812 3.384 5.905 4.869a7.255 7.255 0 004.738.08m-25.031-6.728l4.295-3.945s1.637-1.338 3.584-2.488m-4.913 6.62l3.933-3.196s1.892-1.351 3.127-1.78" stroke="#646464" stroke-width=".5" stroke-miterlimit="10"/><path d="M35.415 64.984c-.644.4-1.422 3.558-.738 3.504.55-.361 0-1.806.738-3.504z" fill="#FBFBFB" stroke="#646464" stroke-width=".5" stroke-miterlimit="10"/><path d="M9.619 49.414L8.142 62.35l5.732 4.36-4.255-17.295zm7.503-8.132l-4.9 6.327 7.651 7.985-2.751-14.312zm-7.49-22.605l2.349 9.47 9.26-3.157-11.609-6.313zm8.416 38.121l-6.376-7.49 2.577 12.786 3.799-5.296zm-6.886-9.992l.537-12.44 3.49 7.691-4.027 4.749zm14.254-31.807l-5.1-9.725-4.926 2.14L25.416 15zm-9.623 2.113l-2-9.176 6.805 5.337-4.805 3.839zm3.007-1.016l9.998 1.899-8.12 4.307-1.879-6.206zm-5.249 2.956l-5.825-7.183 4.751-6.795 1.074 13.978zm7.289-17.75L32.1 6.987l-2.335 7.557-8.926-13.242zM1.7 3.134l1.342 13.282L6.505 7.87 1.7 3.134zm8.147 20.331L6.263 11.521 4.116 20.43l5.731 3.037zM6.33 38.78l1.933 13.015 1.826-8.6L6.33 38.78zM3.499 22.837L8.96 39.088l.282-14.486L3.5 22.837zM1.726.7l4.765 5.404 6.483-2.435L1.726.7z" fill="#F7F7F7" stroke="#646464" stroke-width=".5" stroke-miterlimit="10"/></svg>
